data/warning.svg

<?xml version="1.0" encoding="UTF-8" standalone="no"?>
<!-- Created with Inkscape (http://www.inkscape.org/) -->

<svg
   xmlns:dc="http://purl.org/dc/elements/1.1/"
   xmlns:cc="http://creativecommons.org/ns#"
   xmlns:rdf="http://www.w3.org/1999/02/22-rdf-syntax-ns#"
   xmlns:svg="http://www.w3.org/2000/svg"
   xmlns="http://www.w3.org/2000/svg"
   xmlns:xlink="http://www.w3.org/1999/xlink"
   xmlns:sodipodi="http://sodipodi.sourceforge.net/DTD/sodipodi-0.dtd"
   xmlns:inkscape="http://www.inkscape.org/namespaces/inkscape"
   width="64.005753"
   height="64.005753"
   id="svg1886"
   sodipodi:version="0.32"
   inkscape:version="0.48.4 r9939"
   version="1.0"
   sodipodi:docname="warning.svg">
  <defs
     id="defs1888">
    <radialGradient
       id="paint"
       cx="67"
       cy="67"
       r="100"
       gradientUnits="userSpaceOnUse"
       gradientTransform="translate(-2.539726,-5.925925)">
      <stop
         offset="0"
         style="stop-color:#808080"
         id="stop5" />
      <stop
         offset="0.12"
         style="stop-color:#606060"
         id="stop7" />
      <stop
         offset="0.45"
         style="stop-color:#202020"
         id="stop9" />
      <stop
         offset="1"
         style="stop-color:#000000"
         id="stop11" />
    </radialGradient>
    <linearGradient
       id="linearGradient2801"
       inkscape:collect="always">
      <stop
         id="stop2803"
         offset="0"
         style="stop-color:#ffa500;stop-opacity:1" />
      <stop
         id="stop2805"
         offset="1"
         style="stop-color:red;stop-opacity:1" />
    </linearGradient>
    <linearGradient
       inkscape:collect="always"
       id="linearGradient2785">
      <stop
         style="stop-color:yellow;stop-opacity:1;"
         offset="0"
         id="stop2787" />
      <stop
         style="stop-color:#ffb900;stop-opacity:1"
         offset="1"
         id="stop2789" />
    </linearGradient>
    <linearGradient
       inkscape:collect="always"
       xlink:href="#linearGradient2785"
       id="linearGradient2791"
       x1="28.533073"
       y1="34.708992"
       x2="128.92726"
       y2="135.02646"
       gradientUnits="userSpaceOnUse" />
    <linearGradient
       inkscape:collect="always"
       xlink:href="#linearGradient2801"
       id="linearGradient2799"
       x1="28.109804"
       y1="24.973553"
       x2="135.69974"
       y2="138.4127"
       gradientUnits="userSpaceOnUse" />
    <radialGradient
       inkscape:collect="always"
       xlink:href="#paint"
       id="radialGradient2866"
       gradientUnits="userSpaceOnUse"
       gradientTransform="translate(-2.539726,-5.925925)"
       cx="67"
       cy="67"
       r="100" />
    <radialGradient
       inkscape:collect="always"
       xlink:href="#paint"
       id="radialGradient2872"
       gradientUnits="userSpaceOnUse"
       gradientTransform="translate(-2.539726,-5.925925)"
       cx="67"
       cy="67"
       r="100" />
    <radialGradient
       inkscape:collect="always"
       xlink:href="#paint"
       id="radialGradient2878"
       gradientUnits="userSpaceOnUse"
       gradientTransform="translate(-2.539726,-5.925925)"
       cx="67"
       cy="67"
       r="100" />
    <radialGradient
       inkscape:collect="always"
       xlink:href="#paint"
       id="radialGradient2884"
       gradientUnits="userSpaceOnUse"
       gradientTransform="translate(-2.539726,-5.925925)"
       cx="67"
       cy="67"
       r="100" />
    <linearGradient
       inkscape:collect="always"
       xlink:href="#linearGradient2801"
       id="linearGradient3013"
       gradientUnits="userSpaceOnUse"
       x1="28.109804"
       y1="24.973553"
       x2="135.69974"
       y2="138.4127" />
    <linearGradient
       inkscape:collect="always"
       xlink:href="#linearGradient2785"
       id="linearGradient3015"
       gradientUnits="userSpaceOnUse"
       x1="28.533073"
       y1="34.708992"
       x2="128.92726"
       y2="135.02646" />
    <radialGradient
       inkscape:collect="always"
       xlink:href="#paint"
       id="radialGradient3017"
       gradientUnits="userSpaceOnUse"
       gradientTransform="translate(-2.539726,-5.925925)"
       cx="67"
       cy="67"
       r="100" />
  </defs>
  <sodipodi:namedview
     id="base"
     pagecolor="#ffffff"
     bordercolor="#666666"
     borderopacity="1.0"
     gridtolerance="10000"
     guidetolerance="10"
     objecttolerance="10"
     inkscape:pageopacity="0.0"
     inkscape:pageshadow="2"
     inkscape:zoom="2.3625"
     inkscape:cx="78.98009"
     inkscape:cy="78.134747"
     inkscape:document-units="px"
     inkscape:current-layer="layer1"
     width="160px"
     height="160px"
     inkscape:window-width="1058"
     inkscape:window-height="808"
     inkscape:window-x="355"
     inkscape:window-y="129"
     showgrid="false"
     fit-margin-top="0"
     fit-margin-left="0"
     fit-margin-right="0"
     fit-margin-bottom="0"
     inkscape:window-maximized="0" />
  <metadata
     id="metadata1891">
    <rdf:RDF>
      <cc:Work
         rdf:about="">
        <dc:format>image/svgxml</dc:format>
        <dc:type
           rdf:resource="http://purl.org/dc/dcmitype/StillImage" />
      </cc:Work>
    </rdf:RDF>
  </metadata>
  <g
     inkscape:label="Layer 1"
     inkscape:groupmode="layer"
     id="layer1"
     transform="translate(-1.8664709,-94.128992)">
    <g
       id="g3005"
       transform="matrix(0.40955492,0,0,0.40955492,1.102008,93.369204)">
      <path
         transform="translate(-2.53968,-1.269844)"
         d="m 160.42328,81.269844 c 0,43.013926 -34.86968,77.883596 -77.8836,77.883596 -43.013923,0 -77.8835978,-34.86967 -77.8835978,-77.883596 0,-43.013924 34.8696748,-77.8835983 77.8835978,-77.8835983 43.01392,0 77.8836,34.8696743 77.8836,77.8835983 z"
         sodipodi:ry="77.883598"
         sodipodi:rx="77.883598"
         sodipodi:cy="81.269844"
         sodipodi:cx="82.53968"
         id="path1894"
         style="fill:url(#linearGradient3013);fill-opacity:1;stroke:#000000;stroke-width:0.5;stroke-linecap:butt;stroke-linejoin:round;stroke-miterlimit:4;stroke-opacity:1;stroke-dasharray:none"
         sodipodi:type="arc" />
      <path
         transform="translate(0.423279,-4.232803)"
         d="m 150.26455,84.232803 c 0,39.039807 -31.64802,70.687827 -70.687829,70.687827 -39.039809,0 -70.6878279,-31.64802 -70.6878279,-70.687827 0,-39.039809 31.6480189,-70.687828 70.6878279,-70.687828 39.039809,0 70.687829,31.648019 70.687829,70.687828 z"
         sodipodi:ry="70.687828"
         sodipodi:rx="70.687828"
         sodipodi:cy="84.232803"
         sodipodi:cx="79.576721"
         id="path1896"
         style="opacity:0.98000004;fill:url(#linearGradient3015);fill-opacity:1;stroke:none"
         sodipodi:type="arc" />
      <g
         transform="matrix(0.232634,0,0,0.232634,114.9343,114.9343)"
         id="g2857">
        <path
           style="fill:url(#radialGradient3017);stroke:#000000;stroke-width:5"
           d="m 155,84.839 0,-9.678 -21.033,0 C 132.964,63.832 128.481,53.506 121.584,45.26 l 14.87,-14.871 -6.842,-6.843 -14.872,14.871 C 106.494,31.52 96.167,27.037 84.839,26.033 l 0,-21.033 -9.678,0 0,21.033 c -11.33,1.003 -21.657,5.486 -29.903,12.383 l -14.87,-14.87 -6.843,6.843 14.87,14.87 C 31.519,53.506 27.036,63.833 26.032,75.162 l -21.032,0 0,9.678 21.033,0 c 1.003,11.331 5.485,21.658 12.382,29.903 l -14.869,14.87 6.843,6.842 14.869,-14.868 c 8.246,6.896 18.573,11.378 29.904,12.381 l 0,21.032 9.678,0 0,-21.033 c 11.329,-1.003 21.656,-5.485 29.902,-12.382 l 14.871,14.869 6.842,-6.842 -14.869,-14.871 c 6.896,-8.245 11.379,-18.572 12.382,-29.902 l 21.032,0 0,-0.839 0,0.839 z"
           id="path13"
           inkscape:connector-curvature="0" />
        <circle
           d="m 86,80 c 0,3.313708 -2.686292,6 -6,6 -3.313708,0 -6,-2.686292 -6,-6 0,-3.313708 2.686292,-6 6,-6 3.313708,0 6,2.686292 6,6 z"
           style="fill:none;stroke:#000000;stroke-width:4"
           sodipodi:ry="6"
           sodipodi:rx="6"
           sodipodi:cy="80"
           sodipodi:cx="80"
           cx="80"
           cy="80"
           r="6"
           id="circle15" />
        <circle
           d="m 130,80 c 0,27.61424 -22.38576,50 -50,50 -27.614237,0 -50,-22.38576 -50,-50 0,-27.614237 22.385763,-50 50,-50 27.61424,0 50,22.385763 50,50 z"
           style="fill:none;stroke:#000000;stroke-width:5"
           sodipodi:ry="50"
           sodipodi:rx="50"
           sodipodi:cy="80"
           sodipodi:cx="80"
           cx="80"
           cy="80"
           r="50"
           id="circle17" />
      </g>
    </g>
  </g>
</svg>

<?xml version="1.0" encoding="UTF-8" standalone="no"?>
<!-- Created with Inkscape (http://www.inkscape.org/) -->
<svg
   xmlns:dc="http://purl.org/dc/elements/1.1/"
   xmlns:cc="http://web.resource.org/cc/"
   xmlns:rdf="http://www.w3.org/1999/02/22-rdf-syntax-ns#"
   xmlns:svg="http://www.w3.org/2000/svg"
   xmlns="http://www.w3.org/2000/svg"
   xmlns:xlink="http://www.w3.org/1999/xlink"
   xmlns:sodipodi="http://sodipodi.sourceforge.net/DTD/sodipodi-0.dtd"
   xmlns:inkscape="http://www.inkscape.org/namespaces/inkscape"
   width="160"
   height="160"
   id="svg1886"
   sodipodi:version="0.32"
   inkscape:version="0.44"
   version="1.0"
   sodipodi:docbase="/home/.unenc/zinx/src/debian/apps/gnome-games-2.12.3/gnomine"
   sodipodi:docname="warning.svg">
  <defs
     id="defs1888">
    <radialGradient
       id="paint"
       cx="67"
       cy="67"
       r="100"
       gradientUnits="userSpaceOnUse"
       gradientTransform="translate(-2.539726,-5.925925)">
      <stop
         offset="0"
         style="stop-color:#808080"
         id="stop5" />
      <stop
         offset="0.12"
         style="stop-color:#606060"
         id="stop7" />
      <stop
         offset="0.45"
         style="stop-color:#202020"
         id="stop9" />
      <stop
         offset="1"
         style="stop-color:#000000"
         id="stop11" />
    </radialGradient>
    <linearGradient
       id="linearGradient2801"
       inkscape:collect="always">
      <stop
         id="stop2803"
         offset="0"
         style="stop-color:#ffa500;stop-opacity:1" />
      <stop
         id="stop2805"
         offset="1"
         style="stop-color:red;stop-opacity:1" />
    </linearGradient>
    <linearGradient
       inkscape:collect="always"
       id="linearGradient2785">
      <stop
         style="stop-color:yellow;stop-opacity:1;"
         offset="0"
         id="stop2787" />
      <stop
         style="stop-color:#ffb900;stop-opacity:1"
         offset="1"
         id="stop2789" />
    </linearGradient>
    <linearGradient
       inkscape:collect="always"
       xlink:href="#linearGradient2785"
       id="linearGradient2791"
       x1="28.533073"
       y1="34.708992"
       x2="128.92726"
       y2="135.02646"
       gradientUnits="userSpaceOnUse" />
    <linearGradient
       inkscape:collect="always"
       xlink:href="#linearGradient2801"
       id="linearGradient2799"
       x1="28.109804"
       y1="24.973553"
       x2="135.69974"
       y2="138.4127"
       gradientUnits="userSpaceOnUse" />
    <radialGradient
       inkscape:collect="always"
       xlink:href="#paint"
       id="radialGradient2866"
       gradientUnits="userSpaceOnUse"
       gradientTransform="translate(-2.539726,-5.925925)"
       cx="67"
       cy="67"
       r="100" />
    <radialGradient
       inkscape:collect="always"
       xlink:href="#paint"
       id="radialGradient2872"
       gradientUnits="userSpaceOnUse"
       gradientTransform="translate(-2.539726,-5.925925)"
       cx="67"
       cy="67"
       r="100" />
    <radialGradient
       inkscape:collect="always"
       xlink:href="#paint"
       id="radialGradient2878"
       gradientUnits="userSpaceOnUse"
       gradientTransform="translate(-2.539726,-5.925925)"
       cx="67"
       cy="67"
       r="100" />
    <radialGradient
       inkscape:collect="always"
       xlink:href="#paint"
       id="radialGradient2884"
       gradientUnits="userSpaceOnUse"
       gradientTransform="translate(-2.539726,-5.925925)"
       cx="67"
       cy="67"
       r="100" />
  </defs>
  <sodipodi:namedview
     id="base"
     pagecolor="#ffffff"
     bordercolor="#666666"
     borderopacity="1.0"
     gridtolerance="10000"
     guidetolerance="10"
     objecttolerance="10"
     inkscape:pageopacity="0.0"
     inkscape:pageshadow="2"
     inkscape:zoom="2.3625"
     inkscape:cx="80"
     inkscape:cy="80"
     inkscape:document-units="px"
     inkscape:current-layer="layer1"
     width="160px"
     height="160px"
     inkscape:window-width="1058"
     inkscape:window-height="808"
     inkscape:window-x="934"
     inkscape:window-y="164" />
  <metadata
     id="metadata1891">
    <rdf:RDF>
      <cc:Work
         rdf:about="">
        <dc:format>image/svgxml</dc:format>
        <dc:type
           rdf:resource="http://purl.org/dc/dcmitype/StillImage" />
      </cc:Work>
    </rdf:RDF>
  </metadata>
  <g
     inkscape:label="Layer 1"
     inkscape:groupmode="layer"
     id="layer1">
    <path
       sodipodi:type="arc"
       style="opacity:1;fill:url(#linearGradient2799);fill-opacity:1;stroke:black;stroke-width:0.5;stroke-linecap:butt;stroke-linejoin:round;stroke-miterlimit:4;stroke-dasharray:none;stroke-opacity:1"
       id="path1894"
       sodipodi:cx="82.53968"
       sodipodi:cy="81.269844"
       sodipodi:rx="77.883598"
       sodipodi:ry="77.883598"
       d="M 160.42328 81.269844 A 77.883598 77.883598 0 1 1  4.6560822,81.269844 A 77.883598 77.883598 0 1 1  160.42328 81.269844 z"
       transform="translate(-2.53968,-1.269844)" />
    <path
       sodipodi:type="arc"
       style="opacity:0.98000004;fill:url(#linearGradient2791);fill-opacity:1;stroke:none;stroke-width:0.5;stroke-linecap:butt;stroke-linejoin:round;stroke-miterlimit:4;stroke-dasharray:none;stroke-opacity:1"
       id="path1896"
       sodipodi:cx="79.576721"
       sodipodi:cy="84.232803"
       sodipodi:rx="70.687828"
       sodipodi:ry="70.687828"
       d="M 150.26455 84.232803 A 70.687828 70.687828 0 1 1  8.8888931,84.232803 A 70.687828 70.687828 0 1 1  150.26455 84.232803 z"
       transform="translate(0.423279,-4.232803)" />
    <g
       id="g2857"
       transform="matrix(0.232634,0,0,0.232634,114.9343,114.9343)">
      <path
         id="path13"
         d="M 155,84.839 L 155,75.161 L 133.967,75.161 C 132.964,63.832 128.481,53.506 121.584,45.26 L 136.454,30.389 L 129.612,23.546 L 114.74,38.417 C 106.494,31.52 96.167,27.037 84.839,26.033 L 84.839,5 L 75.161,5 L 75.161,26.033 C 63.831,27.036 53.504,31.519 45.258,38.416 L 30.388,23.546 L 23.545,30.389 L 38.415,45.259 C 31.519,53.506 27.036,63.833 26.032,75.162 L 5,75.162 L 5,84.84 L 26.033,84.84 C 27.036,96.171 31.518,106.498 38.415,114.743 L 23.546,129.613 L 30.389,136.455 L 45.258,121.587 C 53.504,128.483 63.831,132.965 75.162,133.968 L 75.162,155 L 84.84,155 L 84.84,133.967 C 96.169,132.964 106.496,128.482 114.742,121.585 L 129.613,136.454 L 136.455,129.612 L 121.586,114.741 C 128.482,106.496 132.965,96.169 133.968,84.839 L 155,84.839 L 155,84 L 155,84.839 z "
         style="fill:url(#radialGradient2884);stroke:black;stroke-width:5" />
      <circle
         id="circle15"
         r="6"
         cy="80"
         cx="80"
         sodipodi:cx="80"
         sodipodi:cy="80"
         sodipodi:rx="6"
         sodipodi:ry="6"
         style="fill:none;stroke:black;stroke-width:4" />
      <circle
         id="circle17"
         r="50"
         cy="80"
         cx="80"
         sodipodi:cx="80"
         sodipodi:cy="80"
         sodipodi:rx="50"
         sodipodi:ry="50"
         style="fill:none;stroke:black;stroke-width:5" />
    </g>
  </g>
</svg>
